gfx/socialTiktok.svg

<svg fill="none" height="24" viewBox="0 0 24 24" width="24" xmlns="http://www.w3.org/2000/svg"><path clip-rule="evenodd" d="m12.3865 3-.005 12.2514c-.0526 1.3719-1.208 2.473-2.6244 2.473-.4401 0-.8546-.1076-1.2195-.2953-.8369-.4304-1.4097-1.2877-1.4097-2.2744 0-1.1477.77391-2.1222 1.83851-2.4511.24969-.0771.51536-.1187.79079-.1187.21601 0 .425.0278.6254.0772.0507.0125.1009.0264.1505.0416l.0001-3.1214c-.0496-.00658-.0994-.01268-.1494-.01825-.2058-.02292-.41444-.03665-.6264-.03665-.27336 0-.54232.01871-.80563.0549-.14122.01941-.28081.04384-.41857.07311-2.58861.54989-4.5332 2.80659-4.5332 5.49869 0 1.903.9724 3.5871 2.4562 4.6059l.0016.0016c.9351.6417 2.0727 1.0198 3.2994 1.0198 3.1747 0 5.7574-2.5241 5.7574-5.6267v-6.2124c.6057.42487 1.2786.76357 2 .99765.116.03765.2333.07255.3518.10475.6368.1729 1.3076.2653 2 .2653l-.0001-3.0565c-.8732 0-1.6866-.2535-2.3688-.688l-.001-.0012c-.98-.6244-1.6874-1.6238-1.9081-2.7885-.0477-.2518-.0739-.5108-.0739-.7758zm5.1669.40344c.1132.5973.4811 1.13219 1.0178 1.47413.0091.00583.0182.01174.0273.01771.3653.22602.798.35822 1.2678.35822 1.1046 0 2 .89543 2 2l.0001 3.0564c0 .5305-.2107 1.0392-.5858 1.4143-.375.3751-.8838.5858-1.4142.5858-.8106 0-1.5988-.1007-2.3518-.2901v3.1348c0 4.2502-3.5217 7.6267-7.7574 7.6267-1.64316 0-3.17326-.5076-4.43104-1.3707-.01292-.0089-.02573-.0179-.03843-.0271-1.97038-1.3695-3.28773-3.6403-3.28773-6.2295 0-4.2501 3.52164-7.6267 7.7574-7.6267.2171 0 .4266.01024.6272.02727l.0019-4.55549c.0005-1.10425.8957-1.99918 2-1.99918h3.128c1.1046 0 2 .89543 2 2 0 .13261.0131.26685.0389.40344zm-7.1717 11.29456c-.1456-.0111-.291-.0381-.43343-.0817-.0753-.023-.13773-.0314-.19107-.0314-.38859 0-.6293.3003-.6293.5698 0 .1866.10753.3843.32439.4958.09226.0475.19437.0739.30481.0739.3636 0 .6017-.268.6244-.5267z" fill="#000" fill-rule="evenodd"/></svg>

<svg width="24" height="24" viewBox="0 0 24 24" fill="none" xmlns="http://www.w3.org/2000/svg">
<path fill-rule="evenodd" clip-rule="evenodd" d="M12.3865 3L12.3815 15.2514C12.3289 16.6233 11.1735 17.7244 9.7571 17.7244C9.317 17.7244 8.9025 17.6168 8.5376 17.4291C7.7007 16.9987 7.1279 16.1414 7.1279 15.1547C7.1279 14.007 7.90181 13.0325 8.96641 12.7036C9.2161 12.6265 9.48177 12.5849 9.7572 12.5849C9.97321 12.5849 10.1822 12.6127 10.3826 12.6621C10.4333 12.6746 10.4835 12.6885 10.5331 12.7037L10.5332 9.5823C10.4836 9.57572 10.4338 9.56962 10.3838 9.56405C10.178 9.54113 9.96936 9.5274 9.7574 9.5274C9.48404 9.5274 9.21508 9.54611 8.95177 9.5823C8.81055 9.60171 8.67096 9.62614 8.5332 9.65541C5.94459 10.2053 4 12.462 4 15.1541C4 17.0571 4.9724 18.7412 6.4562 19.76L6.4578 19.7616C7.3929 20.4033 8.5305 20.7814 9.7572 20.7814C12.9319 20.7814 15.5146 18.2573 15.5146 15.1547V8.9423C16.1203 9.36717 16.7932 9.70587 17.5146 9.93995C17.6306 9.9776 17.7479 10.0125 17.8664 10.0447C18.5032 10.2176 19.174 10.31 19.8664 10.31L19.8663 7.2535C18.9931 7.2535 18.1797 7 17.4975 6.5655L17.4965 6.5643C16.5165 5.9399 15.8091 4.9405 15.5884 3.7758C15.5407 3.524 15.5145 3.265 15.5145 3H12.3865ZM17.5534 3.40344C17.6666 4.00074 18.0345 4.53563 18.5712 4.87757C18.5803 4.8834 18.5894 4.88931 18.5985 4.89528C18.9638 5.1213 19.3965 5.2535 19.8663 5.2535C20.9709 5.2535 21.8663 6.14893 21.8663 7.2535L21.8664 10.3099C21.8664 10.8404 21.6557 11.3491 21.2806 11.7242C20.9056 12.0993 20.3968 12.31 19.8664 12.31C19.0558 12.31 18.2676 12.2093 17.5146 12.0199V15.1547C17.5146 19.4049 13.9929 22.7814 9.7572 22.7814C8.11404 22.7814 6.58394 22.2738 5.32616 21.4107C5.31324 21.4018 5.30043 21.3928 5.28773 21.3836C3.31735 20.0141 2 17.7433 2 15.1541C2 10.904 5.52164 7.5274 9.7574 7.5274C9.9745 7.5274 10.184 7.53764 10.3846 7.55467L10.3865 2.99918C10.387 1.89493 11.2822 1 12.3865 1H15.5145C16.6191 1 17.5145 1.89543 17.5145 3C17.5145 3.13261 17.5276 3.26685 17.5534 3.40344ZM10.3817 14.698C10.2361 14.6869 10.0907 14.6599 9.94827 14.6163C9.87297 14.5933 9.81054 14.5849 9.7572 14.5849C9.36861 14.5849 9.1279 14.8852 9.1279 15.1547C9.1279 15.3413 9.23543 15.539 9.45229 15.6505C9.54455 15.698 9.64666 15.7244 9.7571 15.7244C10.1207 15.7244 10.3588 15.4564 10.3815 15.1977L10.3817 14.698Z" fill="black" style="fill:black;fill-opacity:1;"/>
</svg>
